dist/svg/filter-delete.svg

<!-- Generated by Trend Micro Style Portal -->
<svg version="1.1" xmlns="http://www.w3.org/2000/svg" width="16" height="16" viewBox="0 0 16 16">
  <title>filter-delete</title>
  <path fill="rgb(34,34,34)" d="M13.867 1.067v-1.067h-13.867v1.067zM5.333 8.533l-5.333-5.333v-1.067h13.867v1.067l-4.046 4.046-1.287-1.288-2.575 2.575 2.575 2.575v1.25l-2.575 2.575 0.39 0.39-1.015 0.677zM16 14.933l-1.067 1.067-3.2-3.2-3.2 3.2-1.067-1.067 3.2-3.2-3.2-3.2 1.067-1.067 3.2 3.2 3.2-3.2 1.067 1.067-3.2 3.2z"></path>
</svg>

<svg width="16" height="16" viewBox="0 0 16 16" fill="rgb(34, 34, 34)" xmlns="http://www.w3.org/2000/svg"><title>filter-delete</title><path d="M13.867 1.067V0H0V1.067H13.867ZM5.333 8.533L0 3.2V2.133H13.867V3.2L9.821 7.246L8.534 5.958L5.959 8.533L8.534 11.108V12.358L5.959 14.933L6.349 15.323L5.334 16L5.333 8.533ZM16 14.933L14.933 16L11.733 12.8L8.533 16L7.466 14.933L10.666 11.733L7.466 8.533L8.533 7.466L11.733 10.666L14.933 7.466L16 8.533L12.8 11.733L16 14.933Z" fill="rgb(34, 34, 34)" fill-opacity="1.00"/></svg>
